!!!OTL: Yang diao
!!!ARE: Asia, China,ˇnan Yunnan
!! Hanzu minge gailun, 224
!!!SCT: C1716
!!!YEM: Copyright 1995, estate of Helmut Schaffrath.
**kern
*ICvox
*Ivox
*M2/4
*k[b-]
*F:
{8f
8f
8f
8d
=1
4ff
8dd
8cc
=2
8cc
8dd
8cc
8a
=3
8.g
16f
4g}
=4
{8cc
8cc
16dd
16ff
16dd
16cc
=5
8g
8a
16a
16g
8f
=6
16d
16f
8c
16f
16g
8d
=7
2c}
=8
{8c
8d
4f
=9
4g
8a
8cc
=10
8g
16a
16cc
16g
16f
16f
16c
=11
8.d
16c
4d}
=12
{8cc
8cc
16dd
16ff
8cc
=13
8g
8a
16a
16g
8f
=14
16d
16f
8c
8cc
8a
=15
8.g
16a
16g
16f
8d
=16
2c}
=17
{8a
16a
16cc
8cc
8f
=18
8.g
16a
4g
=19
8a
16a
16cc
8cc
8f
=20
8.g
16a
4g}
=21
{8f
16f
16g
8a
16g
16a
=22
2cc
=23
8d
8f
8f
8d
=24
2c}
==
!!!AGN: Wuge, Huadeng, Yunnan huadeng, MengjiangnÅ diao
!!!ONB: ESAC (Essen Associative Code) Database: ZHEN
!!!AMT: simple duple
!!!AIN: vox
!!!EED: Helmut Schaffrath
!!!EEV: 1.0
*-
